X:1
T:Title
%%score { 1 | 2 }
L:1/8
Q:1/4=100
M:6/4
K:Eb
V:1 treble nm="Grand Piano"
V:2 bass 
V:1
 [GB]2 [_G=A]2 [=GB]2 [Ge]2 [_Ad]2 [Ac]2 | [GB]2 G2 c2 B2 G4 | %2
w: B.~D.~Ackley * * * * *||
 [DB]2 [DF]2 [DG]2 [DA]2 [Ad]2 [DAc]2 | [Ac]2 [GB]2 [_G=A]2 [=GB]6 | %4
w: ||
 [GB]2 [_G=A]2 [=GB]2 [Ge]2 [_Ad]2 [Ac]2 | [GB]2 G2 c2 B2 G4 | F2 B2 c2 d2 [Ff]2 [Ge]2 | %7
w: |||
 d2 B2 c2 [DB]6 | [GB]2 [_G=A]2 [=GB]2 [Ge]2 [_Ad]2 [Ac]2 | [GB]4 E2 G6 | [DF]4 [EG]2 [FA]6 | %11
w: ||||
 [EG]4 [FA]2 [GB]6 | [GB]2 [_G=A]2 [=GB]2 [Ac]2 [GB]2 [EG]2 | [Ge]4 [EBd]2 [EAc]4 [E_Gc]2 | %14
w: |||
 [EGB]2 [B,EG]2 [G,E]2 [A,DF]2 [B,DG]3 [A,DF] | [G,E]12 |] %16
w: ||
V:2
 [E,E]2 [E,E]2 [E,E]2 [E,B,]2 [E,C]2 [E,D]2 | [E,E]2 [E,B,E]2 [E,A,E]2 [E,G,E]2 [E,B,E]4 | %2
 [B,,B,]2 [B,,A,]2 [B,,G,]2 [B,,F,]2 [B,,B,]2 B,,2 | [E,E]2 [E,E]2 [E,E]2 [E,E]6 | %4
 [E,E]2 [E,E]2 [E,E]2 [E,B,]2 [E,C]2 [E,D]2 | [E,E]2 [E,B,E]2 [E,A,E]2 [E,G,E]2 [E,B,E]4 | %6
 [F,B,D]2 [F,B,D]2[K:treble] [F,=A,F]2 [B,F]2[K:bass] [D,B,]2 [E,B,]2 | %7
 [F,B,F]2 [F,B,D]2 [F,=A,E]2 [B,,B,]6 | [E,E]2 [E,E]2 [E,E]2 [E,B,]2 [E,C]2 [E,D]2 | %9
 [E,E]4 [E,G,]2 [E,B,E]6 | [B,,B,]4 [B,,B,]2 [B,,B,]6 | [E,B,]4 [E,B,]2 [E,E]6 | %12
 [E,E]2 [E,E]2 [E,E]2 [E,E]2 [E,E]2 [E,B,]2 | [E,B,]4 G,2 A,4 =A,2 | B,2 B,,2 B,,2 B,,2 B,,3 B,, | %15
 E,12 |] %16

